icons/core/pin-fill.svg

<svg width="32" height="32" viewBox="0 0 32 32" fill="none" xmlns="http://www.w3.org/2000/svg">
<path fill-rule="evenodd" clip-rule="evenodd" d="M13.3738 2.04037L11.7475 3.66659L17.8572 9.77626L26.5329 12.255C27.4493 12.5169 27.7473 13.6669 27.0733 14.3408L21.4142 19.9999L29.3738 27.9595L27.9596 29.3737L20 21.4142L14.3409 27.0733C13.6669 27.7472 12.5169 27.4492 12.2551 26.5328L9.77632 17.8572L3.66665 11.7475L2.04043 13.3737L0.626221 11.9595L11.9596 0.62616L13.3738 2.04037Z" fill="black"/>
</svg>

<svg width="32" height="32" viewBox="0 0 32 32" xmlns="http://www.w3.org/2000/svg">
    <path fill-rule="evenodd" d="M13.374 2.04l-1.627 1.627 6.11 6.11 8.676 2.478a1.25 1.25 0 01.54 2.086L21.414 20l7.96 7.96-1.414 1.414-7.96-7.96-5.66 5.66a1.25 1.25 0 01-2.085-.541l-2.479-8.676-6.11-6.11-1.626 1.627-1.414-1.415L11.96.627l1.414 1.414z"/>
</svg>
